brandFactory_export/3.Masa/Datos compartidos_3Masa.svg

<?xml version="1.0" encoding="UTF-8"?>
<svg width="24px" height="24px" viewBox="0 0 24 24" version="1.1" xmlns="http://www.w3.org/2000/svg" xmlns:xlink="http://www.w3.org/1999/xlink">
    <title>3.Masa/Datos compartidos_3Masa</title>
    <g id="Symbols" stroke="none" stroke-width="1" fill="none" fill-rule="evenodd">
        <g id="3.Masa/Datos-compartidos_3Masa" fill="#5CB615" fill-rule="nonzero">
            <path d="M22.6857143,4.17647059 C22.010084,3.40336134 21.0016807,3.01008403 19.6806723,3.01008403 L3.94957983,3.01008403 C2.63193277,3.01008403 1.62016807,3.40336134 0.944537815,4.17647059 C0.319327731,4.89579832 0,5.93781513 0,7.27563025 L0,13.2016807 C0,14.5394958 0.319327731,15.5815126 0.944537815,16.3008403 C1.62016807,17.0739496 2.62857143,17.4672269 3.94957983,17.4672269 L19.6806723,17.4672269 C20.9983193,17.4672269 22.010084,17.0739496 22.6857143,16.3042017 C23.3142857,15.5848739 23.6302521,14.5428571 23.6302521,13.205042 L23.6302521,7.27563025 C23.6302521,5.93781513 23.3109244,4.89579832 22.6857143,4.17647059 Z M23.589916,19.4134454 C23.589916,19.7831933 23.287395,20.0857143 22.9176471,20.0857143 L0.712605042,20.0857143 C0.342857143,20.0857143 0.0403361345,19.7831933 0.0403361345,19.4134454 C0.0403361345,19.0436975 0.342857143,18.7411765 0.712605042,18.7411765 L22.9176471,18.7411765 C23.287395,18.7411765 23.589916,19.0436975 23.589916,19.4134454 C23.589916,19.4168067 23.589916,19.4168067 23.589916,19.4134454 Z M13.1831933,8.73445378 L10.8067227,9.92436975 C10.8302521,10.1226891 10.8302521,10.3210084 10.8067227,10.5193277 L13.1798319,11.7058824 C13.2067227,11.6756303 13.2369748,11.6453782 13.2672269,11.6151261 C13.5563025,11.3428571 13.9563025,11.2016807 14.4605042,11.2016807 C14.9647059,11.2016807 15.3647059,11.3394958 15.6537815,11.6151261 C15.9596639,11.9042017 16.1142857,12.3243697 16.1142857,12.8621849 C16.1142857,13.3764706 15.9697479,13.7865546 15.687395,14.0722689 C15.405042,14.3579832 14.9781513,14.5193277 14.4605042,14.5193277 C13.9428571,14.5193277 13.5193277,14.3647059 13.2336134,14.0722689 C12.9478992,13.7798319 12.810084,13.3764706 12.810084,12.8621849 C12.810084,12.7882353 12.8134454,12.7176471 12.8201681,12.6504202 L10.3966387,11.4369748 C10.1109244,11.7260504 9.6907563,11.8773109 9.17647059,11.8773109 C8.66218487,11.8773109 8.23529412,11.7226891 7.94957983,11.4302521 C7.66386555,11.1378151 7.52268908,10.7344538 7.52268908,10.2201681 C7.52268908,9.68235294 7.67731092,9.26218487 7.98319328,8.97310924 C8.27226891,8.70084034 8.67226891,8.55966387 9.17647059,8.55966387 C9.68067227,8.55966387 10.0806723,8.69747899 10.3697479,8.97310924 L10.4,9.00336134 L12.8201681,7.79327731 C12.8134454,7.72268908 12.810084,7.65210084 12.810084,7.57815126 C12.810084,7.04033613 12.9647059,6.62016807 13.2705882,6.33109244 C13.5596639,6.05882353 13.9596639,5.91764706 14.4638655,5.91764706 C14.9680672,5.91764706 15.3680672,6.05546218 15.6571429,6.33109244 C15.9630252,6.62016807 16.1176471,7.04033613 16.1176471,7.57815126 C16.1176471,8.09243697 15.9731092,8.50252101 15.6907563,8.78823529 C15.4084034,9.07394958 14.9815126,9.23529412 14.4638655,9.23529412 C13.9462185,9.23529412 13.5226891,9.08067227 13.2369748,8.78823529 C13.2134454,8.77142857 13.2,8.7512605 13.1831933,8.73445378 L13.1831933,8.73445378 Z" id="Datos-compartidos_3Masa"></path>
        </g>
    </g>
</svg>

<svg width="24" height="24" viewBox="0 0 24 24" xmlns="http://www.w3.org/2000/svg"><path d="M22.686 4.176c-.676-.773-1.684-1.166-3.005-1.166H3.95c-1.318 0-2.33.393-3.005 1.166C.319 4.896 0 5.938 0 7.276v5.926c0 1.337.32 2.38.945 3.099.675.773 1.684 1.166 3.005 1.166h15.73c1.318 0 2.33-.393 3.006-1.163.628-.72.944-1.761.944-3.099v-5.93c0-1.337-.32-2.38-.944-3.099zm.904 15.237c0 .37-.303.673-.672.673H.713a.674.674 0 01-.673-.673c0-.37.303-.672.673-.672h22.205c.37 0 .672.303.672.672 0 .004 0 .004 0 0zM13.183 8.734l-2.376 1.19c.023.199.023.397 0 .595l2.373 1.187c.027-.03.057-.06.087-.09.29-.273.69-.414 1.194-.414s.904.137 1.193.413c.306.29.46.71.46 1.247 0 .514-.144.925-.427 1.21-.282.286-.709.447-1.226.447-.518 0-.942-.154-1.227-.447-.286-.292-.424-.696-.424-1.21 0-.074.003-.144.01-.212l-2.423-1.213c-.286.29-.706.44-1.22.44-.515 0-.942-.154-1.227-.447-.286-.292-.427-.696-.427-1.21 0-.538.154-.958.46-1.247.29-.272.69-.413 1.193-.413.505 0 .905.137 1.194.413l.03.03 2.42-1.21a2.25 2.25 0 01-.01-.215c0-.538.155-.958.46-1.247.29-.272.69-.413 1.194-.413s.904.137 1.193.413c.306.29.46.71.46 1.247 0 .514-.144.925-.426 1.21-.283.286-.71.447-1.227.447-.518 0-.941-.154-1.227-.447-.024-.017-.037-.037-.054-.054z" fill="#5CB615" fill-rule="nonzero"/></svg>
